src/assets/icons/file-fail-import.svg

<?xml version="1.0" encoding="UTF-8"?>
<svg width="101px" height="86px" viewBox="0 0 101 86" version="1.1" xmlns="http://www.w3.org/2000/svg" xmlns:xlink="http://www.w3.org/1999/xlink">
    <!-- Generator: Sketch 50.2 (55047) - http://www.bohemiancoding.com/sketch -->
    <title>Group 5</title>
    <desc>Created with Sketch.</desc>
    <defs>
        <path d="M39,48.1715729 L43.5857864,43.5857864 C44.366835,42.8047379 45.633165,42.8047379 46.4142136,43.5857864 C47.1952621,44.366835 47.1952621,45.633165 46.4142136,46.4142136 L41.8284271,51 L46.4142136,55.5857864 C47.1952621,56.366835 47.1952621,57.633165 46.4142136,58.4142136 C45.633165,59.1952621 44.366835,59.1952621 43.5857864,58.4142136 L39,53.8284271 L34.4142136,58.4142136 C33.633165,59.1952621 32.366835,59.1952621 31.5857864,58.4142136 C30.8047379,57.633165 30.8047379,56.366835 31.5857864,55.5857864 L36.1715729,51 L31.5857864,46.4142136 C30.8047379,45.633165 30.8047379,44.366835 31.5857864,43.5857864 C32.366835,42.8047379 33.633165,42.8047379 34.4142136,43.5857864 L39,48.1715729 Z" id="path-1"></path>
    </defs>
    <g id="import-contacts---201805" stroke="none" stroke-width="1" fill="none" fill-rule="evenodd">
        <g id="51_2-import-contacts-file-chosen-KO-Copy" transform="translate(-589.000000, -296.000000)">
            <g id="modal" transform="translate(368.000000, 48.000000)">
                <g id="Group-7" transform="translate(80.000000, 232.000000)">
                    <g id="Group-5" transform="translate(141.000000, 16.000000)">
                        <path d="M80.1602285,77.9202772 C80.5419637,72.2288691 80.2425518,66.5316818 80.3072246,60.8287154 C80.3431124,57.4612388 80.3072246,54.0937621 80.3072246,50.7262855 C80.3072246,47.3588089 80.3610564,43.9913322 80.3072246,40.6178743 C80.2414302,34.8219864 80.5524582,29.0260986 80.1576919,23.2302107 C80.1727474,22.1139974 79.6297489,21.0639012 78.7102152,20.4309584 C78.3704895,20.2357499 78.0189014,20.0619535 77.657505,19.9105846 C77.0040684,19.6125725 76.3037994,19.4304216 75.5879722,19.3722668 C71.1079722,18.92965 55.3412433,18.9535752 49.5094676,19.0791827 C45.3163884,19.0125014 32.1435564,18.9483923 21.5778705,19.080842 C22.8836478,14.2808514 24.1980263,9.65075564 25.7013538,4.80209854 C26.1182811,3.47719885 26.6260182,1.92893934 28.1228959,0.918180714 C29.6197736,-0.0925779133 31.1160288,0.0544578874 32.5639903,0.312399581 C39.5476313,1.56442993 65.8675998,8.71592115 72.0172748,10.4689908 C77.6827053,11.8569999 92.9180048,15.9145169 97.1306859,17.501532 C97.8070529,17.7429702 98.4362996,18.1001529 98.9903238,18.557128 C99.30022,18.7968731 99.5948376,19.0557429 99.8724555,19.3322252 C100.596817,20.1815878 100.849515,21.3364377 100.546076,22.4107204 C99.4272948,28.1112886 97.6267862,33.6291884 96.190251,39.2446146 C95.369132,42.5170571 94.4455687,45.7558574 93.5740016,49.0085901 C92.7024345,52.2613227 91.8655316,55.5233436 90.9593004,58.766788 C89.3941152,64.3539349 88.1944515,70.0328306 86.297276,75.5186362 C86.0229208,76.600712 85.2266529,77.4744923 84.1746563,77.8478813 C83.7967577,77.9444941 83.4132172,78.0175126 83.0262553,78.0665142 C82.3177361,78.1822897 81.59471,78.1769993 80.8879637,78.0508682 C80.6704586,78.0152923 80.4270528,77.9715275 80.1602285,77.9202772 Z" id="Combined-Shape" fill="#F52D2D" fill-rule="nonzero"></path>
                        <path d="M77.3072246,63.8287154 C77.3431124,60.4612388 77.3072246,57.0937621 77.3072246,53.7262855 C77.3072246,50.3588089 77.3610564,46.9913322 77.3072246,43.6178743 C77.2414302,37.8219864 77.5524582,32.0260986 77.1576919,26.2302107 C77.1727474,25.1139974 76.6297489,24.0639012 75.7102152,23.4309584 C75.3704895,23.2357499 75.0189014,23.0619535 74.657505,22.9105846 C74.0040684,22.6125725 73.3037994,22.4304216 72.5879722,22.3722668 C68.1079722,21.92965 52.3412433,21.9535752 46.5094676,22.0791827 C40.1154489,21.9775005 12.8406825,21.8817995 5.77077598,22.4799304 C4.30535542,22.6055378 2.82199093,22.8507715 1.63769187,24.2145098 C0.453392803,25.5782481 0.363673176,27.205164 0.303860092,28.5928276 C0.0646077559,34.7475939 0.0107759802,40.5195565 0.0107759802,46.6623603 C0.0107759802,48.5703977 0.0107759802,50.885164 0.0107759802,53.3793696 C0.0107759802,53.4930145 0.0107759802,53.6066593 0.0107759802,53.7262855 C0.0107759802,53.8459117 0.0107759802,53.9535752 0.0107759802,54.0732014 C0.0107759802,56.5614257 0.0107759802,58.8582481 0.0107759802,60.7842294 C-0.0310931787,66.9330145 0.0466638307,72.7049771 0.285916167,78.8477808 C0.345729251,80.2414257 0.399561027,81.838435 1.61974794,83.2260986 C2.83993486,84.6137621 4.28741149,84.8350705 5.75283205,84.960678 C6.8533928,85.0503977 8.44442084,85.1281547 10.3704021,85.1879677 C10.3105891,83.0765659 10.2627386,86.1689023 10.3105891,82.3169397 C10.3644208,77.7771266 17.44629,77.9685285 17.3864769,82.5203042 C17.3446078,86.3423603 17.3864769,83.2380612 17.44629,85.3434818 C20.8137666,85.3913322 24.4922713,85.4152575 28.0990003,85.4272201 C28.0391872,83.2619864 27.9853554,86.318435 28.0332059,82.3169397 C28.0870377,77.7771266 35.1689068,77.9685285 35.1090937,82.5203042 C35.0612433,86.396192 35.1090937,83.3098369 35.1689068,85.4332014 C38.644047,85.4332014 41.7483461,85.4332014 44.0032993,85.3913322 C43.9434863,83.2320799 43.8896545,86.2945098 43.937505,82.3169397 C43.9913367,77.7771266 51.0732059,77.9685285 51.0133928,82.5203042 C50.9655423,86.3902107 51.0133928,83.2978743 51.0732059,85.4212388 C53.7109629,85.4212388 56.8332059,85.4212388 59.9075984,85.4212388 C59.8477853,83.2560051 59.7939536,86.3064724 59.8477853,82.3109584 C59.9016171,77.7711453 66.977505,77.9625472 66.9236732,82.5143229 C66.8758227,86.3303977 66.9236732,83.2201173 66.977505,85.3195565 C69.3700283,85.2657248 71.3737666,85.1819864 72.5700283,85.0623603 C73.2853559,85.0012741 73.9851324,84.8192513 74.639561,84.5240425 C75.000664,84.3765575 75.352246,84.2067594 75.6922713,84.0156313 C76.611805,83.3826885 77.1548034,82.3325923 77.1397479,81.216379 C77.5524582,75.4264724 77.2414302,69.6305846 77.3072246,63.8287154 Z" id="Shape" fill="#F52D2D" fill-rule="nonzero"></path>
                        <path d="M22.0773006,48.8102411 C21.6127154,53.4790253 23.3102382,58.4903072 25.3472655,61.0860791 C30.797207,68.1162946 41.6613528,70.387595 48.8802918,65.0698679 C56.1707054,59.6980621 60.9773751,48.8462935 52.4897612,38.6614941 C45.235085,29.9728687 31.7263774,31.8115405 25.2936595,40.5902968 C23.5603994,42.9517282 22.3810678,45.8899978 22.0773006,48.8102411" id="Page-1" fill="#FDD5D5"></path>
                        <mask id="mask-2" fill="white">
                            <use xlink:href="#path-1"></use>
                        </mask>
                        <use id="Mask" fill="#F52D2D" fill-rule="nonzero" xlink:href="#path-1"></use>
                    </g>
                </g>
            </g>
        </g>
    </g>
</svg>

<svg width="101" height="86" xmlns="http://www.w3.org/2000/svg" xmlns:xlink="http://www.w3.org/1999/xlink">
  <defs>
    <path d="M39 48.172l4.586-4.586a2 2 0 0 1 2.828 2.828L41.828 51l4.586 4.586a2 2 0 0 1-2.828 2.828L39 53.828l-4.586 4.586a2 2 0 0 1-2.828-2.828L36.172 51l-4.586-4.586a2 2 0 0 1 2.828-2.828L39 48.172z" id="a"/>
  </defs>
  <g fill="none" fill-rule="evenodd">
    <path d="M80.16 77.92c.382-5.691.083-11.388.147-17.091.036-3.368 0-6.735 0-10.103 0-3.367.054-6.735 0-10.108-.066-5.796.245-11.592-.15-17.388a3.344 3.344 0 0 0-1.447-2.799 9.409 9.409 0 0 0-1.052-.52 6.197 6.197 0 0 0-2.07-.539c-4.48-.442-20.247-.418-26.079-.293-4.193-.066-17.365-.13-27.931.002 1.306-4.8 2.62-9.43 4.123-14.279.417-1.325.925-2.873 2.422-3.884 1.497-1.01 2.993-.864 4.441-.606 6.984 1.252 33.304 8.404 39.453 10.157 5.666 1.388 20.901 5.446 25.114 7.033a6.196 6.196 0 0 1 1.86 1.055c.31.24.604.499.881.775.725.85.978 2.004.674 3.079-1.119 5.7-2.92 11.218-4.356 16.834-.82 3.272-1.744 6.51-2.616 9.764-.872 3.252-1.708 6.514-2.615 9.758-1.565 5.587-2.765 11.266-4.662 16.752a3.344 3.344 0 0 1-2.122 2.329c-.378.096-.762.17-1.149.219a6.346 6.346 0 0 1-2.138-.016c-.218-.036-.46-.08-.728-.13z" fill="#F52D2D" fill-rule="nonzero"/>
    <path d="M77.307 63.829c.036-3.368 0-6.735 0-10.103 0-3.367.054-6.735 0-10.108-.066-5.796.245-11.592-.15-17.388a3.344 3.344 0 0 0-1.447-2.799 9.409 9.409 0 0 0-1.052-.52 6.197 6.197 0 0 0-2.07-.539c-4.48-.442-20.247-.418-26.079-.293-6.394-.101-33.668-.197-40.738.4-1.466.127-2.949.372-4.133 1.736C.453 25.578.364 27.205.304 28.593.064 34.748.01 40.52.01 46.663v14.121c-.042 6.149.036 11.921.275 18.064.06 1.393.114 2.99 1.334 4.378s2.667 1.61 4.133 1.735c1.1.09 2.691.167 4.617.227-.06-2.111-.107.98-.06-2.871.054-4.54 7.136-4.348 7.076.203-.041 3.822 0 .718.06 2.823 3.368.048 7.046.072 10.653.084-.06-2.165-.114.891-.066-3.11.054-4.54 7.136-4.348 7.076.203-.048 3.876 0 .79.06 2.913 3.475 0 6.58 0 8.834-.042-.06-2.159-.113.904-.065-3.074.053-4.54 7.135-4.348 7.075.203-.047 3.87 0 .778.06 2.901h8.835c-.06-2.165-.114.885-.06-3.11.054-4.54 7.13-4.348 7.076.203-.048 3.816 0 .706.054 2.806 2.392-.054 4.396-.138 5.592-.258a6.346 6.346 0 0 0 2.07-.538 9.409 9.409 0 0 0 1.052-.508 3.344 3.344 0 0 0 1.448-2.8c.412-5.79.101-11.585.167-17.387z" fill="#F52D2D" fill-rule="nonzero"/>
    <path d="M22.077 48.81c-.464 4.669 1.233 9.68 3.27 12.276 5.45 7.03 16.314 9.302 23.533 3.984 7.29-5.372 12.097-16.224 3.61-26.409-7.255-8.688-20.764-6.85-27.196 1.93-1.734 2.36-2.913 5.299-3.217 8.22" fill="#FDD5D5"/>
    <use fill="#F52D2D" fill-rule="nonzero" xlink:href="#a"/>
  </g>
</svg>
